build/assets/img/icon-car.svg

<?xml version="1.0" encoding="UTF-8"?>
<svg width="67px" height="46px" viewBox="0 0 67 46" version="1.1" xmlns="http://www.w3.org/2000/svg" xmlns:xlink="http://www.w3.org/1999/xlink">
    <!-- Generator: Sketch 49.3 (51167) - http://www.bohemiancoding.com/sketch -->
    <title>icon-car</title>
    <desc>Created with Sketch.</desc>
    <defs></defs>
    <g id="Page-1" stroke="none" stroke-width="1" fill="none" fill-rule="evenodd">
        <g id="desktop" transform="translate(-307.000000, -1187.000000)" fill="#30E2C0" fill-rule="nonzero">
            <g id="features" transform="translate(0.000000, 936.000000)">
                <g id="cards" transform="translate(168.000000, 217.000000)">
                    <g id="Group">
                        <g>
                            <g id="noun_1379462_cc" transform="translate(139.000000, 34.000000)">
                                <g id="icon-car">
                                    <path d="M9.32416667,0.362424242 L9.32416667,3.15030303 L39.1670833,3.15030303 L39.1670833,20.170303 L60.2790625,20.170303 L63.7686458,24.6239394 L63.7686458,36.5212121 L58.3946875,36.5212121 C57.73926,32.8227297 54.5205366,30.1272848 50.7594792,30.1272848 C46.9984217,30.1272848 43.7796983,32.8227297 43.1242708,36.5212121 L29.3125,36.5212121 C28.6570725,32.8227297 25.4383491,30.1272848 21.6772917,30.1272848 C17.9162342,30.1272848 14.6975108,32.8227297 14.0420833,36.5212121 L9.32416667,36.5212121 L9.32416667,39.3090909 L14.0211458,39.3090909 C14.7086898,42.9755754 17.9140865,45.6328177 21.649375,45.6328177 C25.3846635,45.6328177 28.5900602,42.9755754 29.2776042,39.3090909 L43.1103125,39.3090909 C43.7978564,42.9755754 47.0032531,45.6328177 50.7385417,45.6328177 C54.4738302,45.6328177 57.6792269,42.9755754 58.3667708,39.3090909 L66.539375,39.3090909 L66.539375,23.6969697 L62.1983333,18.1212121 L55.4494792,3.92393939 L41.95875,3.92393939 L41.95875,0.369393939 L9.32416667,0.362424242 Z M21.6354167,42.849697 C19.6221189,42.849695 17.8071956,41.6381855 17.0373935,39.7803945 C16.2675913,37.9226034 16.69461,35.7846327 18.1192252,34.3639459 C19.5438404,32.943259 21.6853132,32.5198208 23.5445461,33.2911851 C25.4037791,34.0625493 26.6143862,35.8767087 26.6115625,37.8872727 C26.6077118,40.629071 24.3809429,42.8496997 21.6354167,42.849697 Z M50.7315625,42.849697 C48.7182647,42.849695 46.9033414,41.6381855 46.1335393,39.7803945 C45.3637372,37.9226034 45.7907558,35.7846327 47.215371,34.3639459 C48.6399862,32.943259 50.781459,32.5198208 52.640692,33.2911851 C54.4999249,34.0625493 55.710532,35.8767087 55.7077083,37.8872727 C55.7038642,40.6263522 53.4813428,42.845858 50.7385417,42.849697 L50.7315625,42.849697 Z M53.68375,6.71181818 L58.7785417,17.3893939 L41.95875,17.3893939 L41.95875,6.71181818 L53.68375,6.71181818 Z" id="Shape"></path>
                                    <rect id="Rectangle-path" x="3.95020833" y="25.7878788" width="11.1666667" height="2.78787879"></rect>
                                    <rect id="Rectangle-path" x="0.460625" y="17.4242424" width="19.5416667" height="2.78787879"></rect>
                                    <rect id="Rectangle-path" x="3.95020833" y="9.06060606" width="19.5416667" height="2.78787879"></rect>
                                </g>
                            </g>
                        </g>
                    </g>
                </g>
            </g>
        </g>
    </g>
</svg>

<svg width="67" height="46" xmlns="http://www.w3.org/2000/svg"><g fill="#30E2C0"><path d="M9.324.362V3.15h29.843v17.02H60.28l3.49 4.454V36.52h-5.374a7.75 7.75 0 00-7.636-6.394 7.75 7.75 0 00-7.635 6.394H29.312a7.75 7.75 0 00-7.635-6.394 7.75 7.75 0 00-7.635 6.394H9.324v2.788h4.697a7.758 7.758 0 007.628 6.324 7.758 7.758 0 007.629-6.324H43.11a7.758 7.758 0 007.629 6.324 7.758 7.758 0 007.628-6.324h8.172V23.697l-4.34-5.576-6.75-14.197H41.96V.369L9.324.362zM21.635 42.85a4.976 4.976 0 01-4.598-3.07 4.964 4.964 0 011.082-5.416 4.981 4.981 0 015.426-1.073 4.97 4.97 0 013.067 4.596 4.973 4.973 0 01-4.977 4.963zm29.097 0a4.976 4.976 0 01-4.598-3.07 4.964 4.964 0 011.081-5.416 4.981 4.981 0 015.426-1.073 4.97 4.97 0 013.067 4.596 4.973 4.973 0 01-4.97 4.963h-.006zm2.952-36.138l5.095 10.677h-16.82V6.712h11.725z"/><path d="M3.95 25.788h11.167v2.788H3.95zM.461 17.424h19.542v2.788H.461zM3.95 9.061h19.542v2.788H3.95z"/></g></svg>
